!!!OTL: Symphony No. 5 in E minor, Movement 2
!!!COM: Tchaikovsky
**kern	**dynam	**kern	**dynam	**kern	**dynam
*staff3	*staff3	*staff2	*staff2	*staff1	*staff1
*Iflt	*Iflt	*Iflt	*Iflt	*Iflt	*Iflt
*I"Flute 3	*I"Flute 3	*I"Flute 2	*I"Flute 2	*I"Flute 1	*I"Flute 1
*clefG2	*clefG2	*clefG2	*clefG2	*clefG2	*clefG2
*k[f#c#]	*k[f#c#]	*k[f#c#]	*k[f#c#]	*k[f#c#]	*k[f#c#]
*M12/8	*M12/8	*M12/8	*M12/8	*M12/8	*M12/8
*tb48	*	*tb48	*	*tb48	*
=1-	=1-	=1-	=1-	=1-	=1-
!!LO:TX:b:Z=10:t=Andante cantibile, con alcuna licenza
1.r	.	1.r	.	1.r	.
=2	=2	=2	=2	=2	=2
1.r	.	1.r	.	1.r	.
=3	=3	=3	=3	=3	=3
1.r	.	1.r	.	1.r	.
=4	=4	=4	=4	=4	=4
1.r	.	1.r	.	1.r	.
=5	=5	=5	=5	=5	=5
1.r	.	1.r	.	1.r	.
=6	=6	=6	=6	=6	=6
1.r	.	1.r	.	1.r	.
=7	=7	=7	=7	=7	=7
1.r	.	1.r	.	1.r	.
=8	=8	=8	=8	=8	=8
1.r	.	1.r	.	1.r	.
=9	=9	=9	=9	=9	=9
1.r	.	1.r	.	1.r	.
=10	=10	=10	=10	=10	=10
1.r	.	1.r	.	1.r	.
=11	=11	=11	=11	=11	=11
1.r	.	1.r	.	1.r	.
=12	=12	=12	=12	=12	=12
1.r	.	1.r	.	1.r	.
=13	=13	=13	=13	=13	=13
!!LO:TX:i:Z=10:t=animando
1.r	.	1.r	.	1.r	.
=14	=14	=14	=14	=14	=14
1.r	.	1.r	.	1.r	.
=15	=15	=15	=15	=15	=15
!!LO:TX:i:Z=10:t=riten.
1.r	.	1.r	.	1.r	.
=16	=16	=16	=16	=16	=16
!!LO:REH:t=A
!!LO:TX:i:Z=10:t=sostenuto
1.r	.	1.r	.	1.r	.
=17	=17	=17	=17	=17	=17
1.r	.	1.r	.	1.r	.
=18	=18	=18	=18	=18	=18
1.r	.	1.r	.	1.r	.
=19	=19	=19	=19	=19	=19
1.r	.	1.r	.	1.r	.
=20	=20	=20	=20	=20	=20
1.r	.	1.r	.	1.r	.
=21	=21	=21	=21	=21	=21
1.r	.	1.r	.	1.r	.
=22	=22	=22	=22	=22	=22
1.r	.	1.r	.	1.r	.
=23	=23	=23	=23	=23	=23
1.r	.	1.r	.	1.r	.
=24	=24	=24	=24	=24	=24
!!LO:TX:Z=10:b:t=Con moto
1.r	.	1.r	.	1.r	.
!!LO:MREST:break
=25	=25	=25	=25	=25	=25
1.r	.	1.r	.	1.r	.
=26	=26	=26	=26	=26	=26
1.r	.	1.r	.	1.r	.
=27	=27	=27	=27	=27	=27
1.r	.	1.r	.	1.r	.
=28	=28	=28	=28	=28	=28
!!LO:TX:i:Z=10:t=sostenuto
1.r	.	1.r	.	1.r	.
=29	=29	=29	=29	=29	=29
1.r	.	1.r	.	1.r	.
=30	=30	=30	=30	=30	=30
1.r	.	1.r	.	1.r	.
=31	=31	=31	=31	=31	=31
1.r	.	1.r	.	1.r	.
=32	=32	=32	=32	=32	=32
1.r	.	1.r	.	1.r	.
=33	=33	=33	=33	=33	=33
!!LO:TX:b:Z=10:t=Tempo I
1.r	.	1.r	.	1.r	.
=34	=34	=34	=34	=34	=34
1.r	.	1.r	.	1.r	.
=35	=35	=35	=35	=35	=35
!!LO:TX:i:Z=10:t=animando
1.r	.	1.r	.	1.r	.
=36	=36	=36	=36	=36	=36
!LO:TX:Z=10:t=Gr.Fl.	!	!	!	!	!
4r	.	4r	.	4r	.
8r	.	8r	.	8r	.
8r	.	8r	.	8r	.
!!LO:TX:i:Z=10:t=riten.
(8f#/L	f	(8f#/L	f	8f#/L	f
8a/J	.	8a/J	.	(8a/J	.
8dd\L	.	8dd\L	.	8dd\L	.
8ff#\	.	8ff#\	.	8ff#\	>
8aa\J	.	8aa\J	.	8aa\J	)
8ddd\L	>	8ddd\L	>	8ddd\L	)
8fff#\	)	8fff#\	)	8fff#\	)
8aaa\J)	]	8aaa\J)	]	8aaa\J)	]
=37	=37	=37	]37	=37	=37
!!LO:TX:i:Z=10:t=sostenuto
4r	.	4r	.	1.r	.
8r	.	8r	.	.	.
([4ee\	mp	([4ee\	mp	.	.
16ee/LL]	.	16ee/LL]	<	.	.
16e/JJ	.	16e/JJ)	(	.	.
(8.e/L)	<	(8.e/L	(	.	.
8.a/J)	(	8.a/J)	(	.	.
8.cc#~\L	(	8.cc#~\L	(	.	.
8.ee~\J	[	8.ee~\J	[	.	.
=38	=38	=38	=38	=38	=38
([4aa^\	f	([4aa^\	f	1.r	.
16aa\LL]	.	16aa\LL]	.	.	.
16a\JJ)	.	16a\JJ	.	.	.
([4.a/	.	([4.a/)	.	.	.
8a/L]	.	8a\L]	.	.	.
8b/	.	8b\	.	.	.
8cc#/J	.	8cc#\J	.	.	.
8dd\)	.	8dd\)	.	.	.
8r	.	8r	.	.	.
8r	.	8r	.	.	.
=39	=39	=39	=39	=39	=39
!!LO:TX:Z=10:b:t=Poco pi&ugrave; animato
1.r	.	1.r	.	1.r	.
=40	=40	=40	=40	=40	=40
1.r	.	1.r	.	1.r	.
=41	=41	=41	=41	=41	=41
1.r	.	1.r	.	1.r	.
=42	=42	=42	=42	=42	=42
1.r	.	1.r	.	1.r	.
=43	=43	=43	=43	=43	=43
!!LO:TX:Z=10:i:t=riten.
1.r	.	1.r	.	1.r	.
=44	=44	=44	=44	=44	=44
!!LO:TX:Z=10:b:t=Tempo I
1.r	.	1.r	.	1.r	.
=45	=45	=45	=45	=45	=45
!!LO:REH:t=B
1.r	.	2.r	.	2.r	.
.	.	4.g/	pp	4.g/	pp
.	.	(4f#/	<	(4f#/	<
.	.	8e/	(	8e/	(
=46	=46	=46	=46	=46	=46
!!LO:TX:i:Z=10:t=animando
1.r	.	8d/)	[	8d/)	[
.	.	8r	.	8r	.
.	.	8r	.	8r	.
.	.	4r	.	4r	.
.	.	8r	.	8r	.
.	.	(8.f#/L	mf	(8.f#/L	mf
.	.	8.g#/J	.	8.g#/J	.
.	.	8.a/L	.	8.a/L	.
.	.	8.f#/J	.	8.f#/J	.
=47	=47	=47	=47	=47	=47
1.r	.	8e#/)	.	8b\)	.
.	.	8r	.	8r	.
.	.	8r	.	8r	.
.	.	4r	.	4r	.
.	.	8r	.	8r	.
.	.	(8.g#/L	ff	(8.g#/L	ff
.	.	8.a#/J	.	8.a#/J	.
.	.	8b\)	.	8b\)	.
.	.	8r	.	8r	.
.	.	8r	.	8r	.
=48	=48	=48	=48	=48	=48
!!LO:TX:i:Z=10:t=riten.
1.r	.	8.en^/L	f	8.e^/L	f
.	.	8.f#^/J	.	8.f#^/J	.
.	.	4.gn^/	.	4.gn^/	.
.	.	2.r	.	2.r	.
=49	=49	=49	=49	=49	=49
1.r	.	2.r	.	2.r	.
.	.	(4.g/	pp	(4.g/	pp
.	.	4f#/	<	4f#/	<
.	.	8e/	(	8e/	(
=50	=50	=50	=50	=50	=50
!!LO:TX:i:Z=10:t=animando
1.r	.	8d/)	[	8d/)	[
.	.	8r	.	8r	.
.	.	8r	.	8r	.
.	.	4r	.	4r	.
.	.	8r	.	8r	.
.	.	(8.f#/L	mp	(8.f#/L	mp
.	.	8.g#/J	<	8.g#/J	<
.	.	8.a/L	(	8.a/L	(
.	.	8.f#/J	[	8.f#/J	[
=51	=51	=51	=51	=51	=51
2.r	.	8e#/)	f	8b\)	.
.	.	8r	.	8r	.
.	.	8r	.	8r	.
.	.	4r	.	4r	.
.	.	8r	.	8r	.
(8.g#/L	mf	(8.g#/L	mf	(8.g#/L	mf
8.a#/J	.	8.a#/J	.	8.a#/J	.
8.b\L	.	8.b\L	.	8.b\L	.
8.dd\J)	.	8.dd\J)	.	8.dd\J)	.
=52	=52	=52	=52	=52	=52
!!LO:REH:t=C
!!LO:TX:b:Z=10:t=Poco pi&ugrave; mosso
!LO:TX:Y=20:i:t=cresc. poco a poco	!	!	!	!	!
(4.f#/	.	(4.ff#\	.	(4.ff#\	.
4gn/)	.	4ggn\)	.	4ggn\)	.
8g/	.	8gg\	.	8gg\	.
(4.g/	.	(4.gg\	.	(4.gg\	.
4g#/)	.	4gg#\)	.	4gg#\)	.
8g#/	.	8gg#\	.	8gg#\	.
=53	=53	=53	=53	=53	=53
(8.g#/L	.	(8.gg#\L	.	(8.gg#\L	.
8.a/J)	.	8.aa\J)	.	8.aa\J)	.
8.a~/L	.	8.aa~\L	.	8.aa~\L	.
8.a~/J	.	8.aa~\J	.	8.aa~\J	.
(8.a/L	.	(8.aa\L	.	(8.aa\L	.
8.a#/J)	.	8.aa#\J)	.	8.aa#\J)	.
8.a#~/L	.	8.aa#~\L	.	8.aa#~\L	.
8.a#~/J	.	8.aa#~\J	.	8.aa#~\J	.
=54	=54	=54	=54	=54	=54
(4.a#/	.	(4.aa#\	.	(4.aa#\	.
4b\)	.	4bb\)	.	4bb\)	.
8b\	.	8bb\	.	8bb\	.
(4.b\	.	(4.bb\	.	(4.bb\	.
4ccn\)	.	4cccn\)	.	4cccn\)	.
8cc\	.	8ccc\	.	8ccc\	.
=55	=55	=55	=55	=55	=55
(8.ccn\L	.	(8.cccn\L	.	(8.cccn\L	.
8.cc#\J)	.	8.ccc#\J)	.	8.ccc#\J)	.
8.cc#~\L	.	8.ccc#~\L	.	8.ccc#~\L	.
8.cc#~\J	.	8.ccc#~\J	.	8.ccc#~\J	.
(8.cc#\L	.	(8.ccc#\L	.	(8.ccc#\L	.
8.dd\J)	.	8.ddd\J)	.	8.ddd\J)	.
8.dd~\L	.	8.ddd~\L	.	8.ddd~\L	.
8.dd~\J	.	8.ddd~\J	.	8.ddd~\J	.
=56	=56	=56	=56	=56	=56
!!LO:TX:b:Z=10:t=Tempo I
4.dd\	fff	4.ddd\	fff	4.ddd\	fff
(4f#/	.	(4ff#\	.	(4ff#\	.
8b\)	.	8bb\)	.	8bb\)	.
8cc#\L	>	(2.aa\	> ]	(2.aa\	> ]
8cc#\	)	.	.	.	.
8cc#\J	)	.	.	.	.
8dd\L	)	.	.	.	.
8dd\	)	.	.	.	.
8ee\J	]	.	.	.	.
=57	=57	=57	=57	=57	=57
!!LO:TX:Z=10:i:t=animando
8b\	.	4.bb\)	ff	4.bb\)	ff
8r	.	.	.	.	.
8r	.	.	.	.	.
4r	.	(4dd\	.	(4dd\	>
8r	.	8gg\)	.	8gg\)	)
2.r	.	(2.ff#\	.	2.ff#\	]
=58	=58	=58	=58	=58	=58
1.r	.	8gg\)	.	(4.gg\	f
.	.	8r	.	.	.
.	.	8r	.	.	.
.	.	4r	.	8b\)	.
.	.	.	.	8r	.
.	.	8r	.	8r	.
.	.	2.r	.	2.r	.
!!LO:TX:Z=10:i:t=riten.
=59	=59	=59	=59	=59	=59
!!LO:TX:Z=10:b:t=Pi&ugrave; animato
1.r	.	4r	.	4r	.
.	.	8r	.	8r	.
.	.	4.d/	p	4.a/	p
.	.	4.d/	>	4.g#/	>
.	.	4.a/	]	4.gn/	]
=60	=60	=60	=60	=60	=60
!!LO:TX:Z=10:i:t=riten.
1.r	.	4.a/	<	4.f#/	<
.	.	4.d/	[	4.a/	[
.	.	4.d/	>	4.g#/	>
.	.	4.a/	]	4.gn/	]
!!LO:MREST:break
=61	=61	=61	=61	=61	=61
!!LO:TX:Z=10:b:t=Poco meno
1.r	.	8a/L	p	8f#/L	p
.	.	8a/	.	8f#/	.
.	.	8a/J	.	8f#/J	.
.	.	8a/L	.	8f#/L	.
.	.	8a/	.	8f#/	.
.	.	8a/J	.	8f#/J	.
.	.	8a/	.	8f#/	.
.	.	8r	.	8r	.
.	.	8r	.	8r	.
.	.	4r	.	4r	.
.	.	8r	.	8r	.
=62	=62	=62	=62	=62	=62
1.r	.	8b\L	.	8f#/L	.
.	.	8b\	.	8f#/	.
.	.	8b\J	.	8f#/J	.
.	.	8b\L	.	8f#/L	.
.	.	8b\	.	8f#/	.
.	.	8b\J	.	8f#/J	.
.	.	8b\	.	8f#/	.
.	.	8r	.	8r	.
.	.	8r	.	8r	.
.	.	4r	.	4r	.
.	.	8r	.	8r	.
=63	=63	=63	=63	=63	=63
1.r	.	1.r	.	1.r	.
=64	=64	=64	=64	=64	=64
1.r	.	1.r	.	1.r	.
=65	=65	=65	=65	=65	=65
1.r	.	1.r	.	1.r	.
=66||	=66||	=66||	=66||	=66||	=66||
*M4/4	*M4/4	*M4/4	*M4/4	*M4/4	*M4/4
*met(c)	*met(c)	*met(c)	*met(c)	*met(c)	*met(c)
!!LO:TX:Z=10:b:t=Moderato con anima
1r	.	1r	.	1r	.
=67	=67	=67	=67	=67	=67
1r	.	1r	.	1r	.
=68	=68	=68	=68	=68	=68
1r	.	1r	.	1r	.
=69	=69	=69	=69	=69	=69
1r	.	1r	.	1r	.
=70	=70	=70	=70	=70	=70
1r	.	1r	.	1r	.
=71	=71	=71	=71	=71	=71
1r	.	1r	.	1r	.
=72	=72	=72	=72	=72	=72
1r	.	1r	.	1r	.
=73	=73	=73	=73	=73	=73
1r	.	1r	.	1r	.
=74	=74	=74	=74	=74	=74
1r	.	1r	.	1r	.
!!LO:MREST:break
=75	=75	=75	=75	=75	=75
!!LO:REH:t=D
1r	.	1r	.	1r	.
=76	=76	=76	=76	=76	=76
1r	.	1r	.	1r	.
=77	=77	=77	=77	=77	=77
2r	.	1r	.	1r	.
8cc#\	mf	.	.	.	.
4cc#\	.	.	.	.	.
(8cc#\	.	.	.	.	.
=78	=78	=78	=78	=78	=78
8g#/L)	.	4.ddd#\	mf	4.ddd#\	mf
(8g#/	.	.	.	.	.
8b#/	.	.	.	.	.
8cc#/J	.	(8eee\	<	(8eee\	<
8gg#\L	.	8ggg#\L	[	8ggg#\L	[
8ff#\)	.	8fff#\)	>	8fff#\)	>
8ee~\	.	8eee~\	)	8eee~\	)
8dd#~\J	.	8ddd#~\J	)	8ddd#~\J	]
=79	=79	=79	=79	=79	=79
1r	.	1r	)	1r	.
=80	=80	=80	=80	=80	=80
8cc#\	mf	1r	)	1r	.
4cc#\	.	.	.	.	.
(8cc#\	.	.	.	.	.
8b#\)	.	.	.	.	.
4b#\	.	.	.	.	.
[8b#\	.	.	.	.	.
=81	=81	=81	=81	=81	=81
8b#\L]	.	1r	]	1r	.
(8b#\	.	.	.	.	.
8cc#\)	.	.	.	.	.
(8cc#\J	.	.	.	.	.
8dd#\)	.	.	.	.	.
4dd#\	.	.	.	.	.
(8dd#\	.	.	.	.	.
=82	=82	=82	=82	=82	=82
8a#\L)	<	4.fffn\	mf	4.fffn\	mf
(8a#\	(	.	.	.	.
8cc##\	(	.	.	.	.
8dd#\J	[	(8ggg-\	.	(8ggg-\	.
8aa#\L	>	8bbb-\L	.	8bbb-\L	.
8gg#\)	)	8aaa-\)	>	8aaa-\)	>
8ff#~\	)	8ggg-~\	)	8ggg-~\	)
8ee#~\J	)	8fff~\J	]	8fff~\J	]
=83	=83	=83	=83	=83	=83
!!LO:REH:t=E
1r	)	1r	.	1r	.
=84	=84	=84	=84	=84	=84
1r	)	1r	.	1r	.
=85	=85	=85	=85	=85	=85
1r	)	1r	.	4.ee-\	f <
.	.	.	.	(8aa-\	(
.	.	.	.	8eee-\L	[
.	.	.	.	8dddn\)	>
.	.	.	.	8ccc-~\	)
.	.	.	.	8bb-~\J	)
=86	=86	=86	=86	=86	=86
1r	)	1r	.	4ee-~\	)
.	.	.	.	(12aa-\L	)
.	.	.	.	12ccc-\	)
.	.	.	.	12eee-\J)	)
.	.	.	.	(8ggg-^\L	)
.	.	.	.	8fffn\)	)
.	.	.	.	8ddd~\	)
.	.	.	.	8bb-~\J	]
=87	=87	=87	=87	=87	=87
1r	]	1r	.	1r	.
=88	=88	=88	=88	=88	=88
4.bb-\	mf <	4.bb-\	mf	4.bb-\	mf
(8ccc-\	[	(8ccc-\	.	(8ccc-\	.
8eee-\L	>	8eee-\L	.	8eee-\L	.
8ddd-\)	)	8ddd-\)	>	8ddd-\)	>
8ccc-~\	)	8ccc-~\	)	8ccc-~\	)
8bb-~\J	]	8bb-~\J	]	8bb-~\J	]
=89	=89	=89	=89	=89	=89
1r	.	1r	.	1r	.
=90	=90	=90	=90	=90	=90
4.ddd#\	f <	4.ddd#\	f	4.ddd#\	f
(8eee\	[	(8eee\	.	(8eee\	.
8ggg#\L	>	8ggg#\L	.	8ggg#\L	.
8fff#\)	)	8fff#\)	>	8fff#\)	>
8eee~\	)	8eee~\	)	8eee~\	)
8ddd#~\J	]	8ddd#~\J	]	8ddd#~\J	]
=91	=91	=91	=91	=91	=91
!!LO:REH:t=F
1r	.	1r	.	1r	.
=92	=92	=92	=92	=92	=92
1r	.	1r	.	1r	.
=93	=93	=93	=93	=93	=93
2r	.	2r	.	2r	.
(4d#/	f	(2dd#\	f	(4g#/	f
8g#/)	.	.	.	4gg#\	.
8r	.	.	.	.	.
=94	=94	=94	=94	=94	=94
2r	.	8ff#\)	.	8ff#\)	.
.	.	8r	.	8r	.
.	.	4r	.	4r	.
(4d#/	.	2dd#\	.	(4g#/	.
8g#/)	.	.	.	4gg#\)	.
8r	.	.	.	.	.
=95	=95	=95	=95	=95	=95
4.g#/	f	4.g#/	f	4.g#/	f
!LO:TX:i:Y=20:t=cresc.	!	!	!	!LO:TX:i:Y=20:t=cresc.	!
(8dd#\	.	(8dd#\	.	(8dd#\	.
8ff#\L	.	8ff#\L	.	8ff#\L	.
8ee\	.	8ee\	.	8ee\	.
8dd#\	.	8dd#\	.	8dd#\	.
8cc#\J)	.	8cc#\J)	.	8cc#\J)	.
=96	=96	=96	=96	=96	=96
!!LO:TX:i:Z=10:t=stringendo
(8bb\L	.	(8bb\L	.	(8bb\L	.
8aa\	.	8aa\	.	8aa\	.
8gg#\	.	8gg#\	.	8gg#\	.
8ff#\J)	.	8ff#\J)	.	8ff#\J)	.
(8eee\L	.	(8eee\L	.	(8eee\L	.
8ddd#\	.	8ddd#\	.	8ddd#\	.
8ccc#\	.	8ccc#\	.	8ccc#\	.
8bb#\J)	.	8bb#\J)	.	8bb#\J)	.
=97	=97	=97	=97	=97	=97
(8aaa\L	fff	(8aaa\L	fff	(8aaa\L	fff
8ggg#\	.	8ggg#\	.	8ggg#\	.
8fff#\	.	8fff#\	.	8fff#\	.
8eee\J)	.	8eee\J)	.	8eee\J)	.
(8ddd#\L	.	(8ddd#\L	.	(8ddd#\L	.
8ccc#\	.	8ccc#\	.	8ccc#\	.
8bbn\	.	8bbn\	.	8bbn\	.
8aa\J)	.	8aa\J)	.	8aa\J)	.
=98	=98	=98	=98	=98	=98
(8gg#\L	.	(8gg#\L	.	(8gg#\L	.
8ff#\	.	8ff#\	.	8ff#\	.
8ee\	.	8ee\	.	8ee\	.
8dd#\J)	.	8dd#\J)	.	8dd#\J)	.
(8cc#/L	.	(8cc#/L	.	(8cc#/L	.
8b/	.	8b/	.	8b/	.
8a/	.	8a/	.	8a/	.
8g#/J)	.	8g#/J)	.	8g#/J)	.
=99	=99	=99	=99	=99	=99
!!LO:TX:b:Z=10:t=Tempo precedente
4.a/	fff	4.a/	fff	4.a/	fff
16a/LL	.	16a/LL	.	16a/LL	.
16a/JJ	.	16a/JJ	.	16a/JJ	.
4.b\	.	4.b\	.	4.b\	.
16a/LL	.	16a/LL	.	16a/LL	.
16g#/JJ	.	16g#/JJ	.	16g#/JJ	.
=100	=100	=100	=100	=100	=100
8a/L	.	8a/L	.	8a/L	.
8a/J	.	8a/J	.	8a/J	.
4r	.	4r	.	4r	.
2r	.	2r	.	2r	.
=101	=101	=101	=101	=101	=101
4.a/	.	4.a/	.	4.a/	.
16a/LL	.	16a/LL	.	16a/LL	.
16a/JJ	.	16a/JJ	.	16a/JJ	.
4.b\	.	4.b\	.	4.b\	.
16a/LL	.	16a/LL	.	16a/LL	.
16g#/JJ	.	16g#/JJ	.	16g#/JJ	.
=102	=102	=102	=102	=102	=102
8a/L	.	8a/L	.	8a/L	.
8a/J	.	8a/J	.	8a/J	.
4r	.	4r	.	4r	.
4r	.	4r	.	4r	.
4e/	.	4b\	.	4dd\	.
=103	=103	=103	=103	=103	=103
4e/	.	4a/	.	4cc#\	.
4e/	.	4gn/	.	4b\	.
4e/	.	4a/	.	4a/	.
4e/	.	4g/	.	4gn/	.
=104	=104	=104	=104	=104	=104
8e/L	.	8a/L	.	8a/L	.
8e/J	.	8a/J	.	8a/J	.
4r	.	4r	.	4r	.
4r	.	4r	.	4r	.
4e/	.	4b\	.	4dd\	.
=105	=105	=105	=105	=105	=105
4e/	.	4a/	.	4cc#\	.
4e/	.	4g/	.	4b\	.
4e/	.	4a/	.	4a/	.
4e/	.	4g/	.	4g/	.
=106	=106	=106	=106	=106	=106
8e/L	.	8a/L	.	8a/L	.
8e/J	.	8a/J	.	8a/J	.
4r	.	4r	.	4r	.
4r	.	4r	.	4r	.
8e/	.	8a/	.	8a/	.
8r	.	8r	.	8r	.
=107	=107	=107	=107	=107	=107
4r	.	4r	.	4r	.
8e/	.	8a/	.	8a/	.
8r	.	8r	.	8r	.
4r	.	4r	.	4r	.
8e/	.	8a/	.	8a/	.
8r;	.	8r;	.	8r;	.
=108	=108	=108||	=108||	=108||	=108||
*M4/4	*M4/4	*M12/8	*M12/8	*M4/4	*M4/4
*met(c)	*met(c)	*	*	*met(c)	*met(c)
!!LO:TX:b:Z=10:t=Tempo I
1r	.	1r	.	1r	.
=109	=109	=109	=109	=109	=109
1r	.	1r	.	1r	.
=110	=110	=110	=110	=110	=110
1r	.	1r	.	1r	.
=111	=111	=111	=111	=111	=111
1r	.	1r	.	1r	.
=112	=112	=112	=112	=112	=112
1r	.	1r	.	1r	.
=113	=113	=113	=113	=113	=113
1r	.	1r	.	1r	.
=114	=114	=114	=114	=114	=114
1r	.	1r	.	1r	.
=115	=115	=115	=115	=115	=115
1r	.	1r	.	1r	.
=116	=116	=116	=116	=116	=116
!!LO:REH:t=G
!!LO:TX:i:Z=10:t=animando
1r	.	1r	.	1r	.
=117	=117	=117	=117	=117	=117
1r	.	1r	.	1r	.
=118	=118	=118	=118	=118	=118
1r	.	1r	.	1r	.
!!LO:TX:Z=10:i:t=riten.
=119	=119	=119	=119	=119	=119
*	*	*	*	*	*
!!LO:TZ:Z=10:i:t=sostenuto
1.r	.	1.r	.	1.r	.
=120	=120	=120	=120	=120	=120
*	*	*M4/4	*M4/4	*M4/4	*M4/4
*	*	*met(c)	*met(c)	*met(c)	*met(c)
(16b\LL	mf	(16b\LL	mf	(16b\LL	mf
16cc#\)	<	16cc#\)	<	16cc#\)	.
16dd#~\	(	16dd#~\	(	16dd#~\	<
16ee~\JJ	(	16ee~\JJ	(	16ee~\JJ	(
16ff#~\LL	(	16ff#~\LL	(	16ff#~\LL	(
16gg~\	(	16gg~\	(	16gg~\	(
16gg#~\	(	16gg#~\	(	16gg#~\	(
16aa~\JJ	[	16aa~\JJ	[	16aa~\JJ	[
(16aa\LL	.	(16aa\LL	.	(16aa\LL	.
16ggn\	.	16ggn\	.	16ggn\	.
16ff#\	.	16ff#\	.	16ff#\	.
16aa\JJ	.	16aa\JJ	.	16aa\JJ	.
8gg\)	.	8gg\)	.	8gg\)	.
16r	.	16r	.	16r	.
(16b\	mf	(16b\	mf	(16b\	mf
=121	=121	=121	=121	=121	=121
16a\LL	.	16a\LL	.	16a\LL	.
16b\)	<	16b\)	.	16b\)	.
16cc#~\	(	16cc#~\	<	16cc#~\	<
16ddn~\JJ	(	16ddn~\JJ	(	16ddn~\JJ	(
16ee~\LL	(	16ee~\LL	(	16ee~\LL	(
16ffn~\	(	16ffn~\	(	16ffn~\	(
16ff#~\	(	16ff#~\	(	16ff#~\	(
16gg~\JJ	[	16gg~\JJ	[	16gg~\JJ	[
(16gg\LL	.	(16gg\LL	.	(16gg\LL	.
16ff#\	.	16ff#\	.	16ff#\	.
16ee#\	.	16ee#\	.	16ee#\	.
16gg\JJ	.	16gg\JJ	.	16gg\JJ	.
8ff#\)	.	8ff#\)	.	8ff#\)	.
8r	.	8r	.	8r	.
=122	=122	=122	=122	=122	=122
!!LO:TX:i:Z=10:t=animando
16r	.	16r	.	16r	.
(16gg#\LL	f	(16gg#\LL	f	(16gg#\LL	f
16aa\	.	16aa\	.	16aa\	.
16gg#\JJ)	.	16gg#\JJ)	.	16gg#\JJ)	.
16r	.	16r	.	16r	.
(16aa\LL	.	(16aa\LL	.	(16aa\LL	.
16bb\	.	16bb\	.	16bb\	.
16aa\JJ)	.	16aa\JJ)	.	16aa\JJ)	.
16r	.	16r	.	16r	.
(16bb\LL	.	(16bb\LL	.	(16bb\LL	.
16ccc#\	.	16ccc#\	.	16ccc#\	.
16bb\JJ)	.	16bb\JJ)	.	16bb\JJ)	.
16r	.	16r	.	16r	.
(16ccc#\LL	.	(16ccc#\LL	.	(16ccc#\LL	.
16ddd\	.	16ddd\	.	16ddd\	.
16ccc#\JJ)	.	16ccc#\JJ)	.	16ccc#\JJ)	.
=123	=123	=123	=123	=123	=123
!!LO:TX:i:Z=10:t=sostenuto
16r	.	16r	.	16r	.
(16ddd\LL	.	(16ddd\LL	.	(16ddd\LL	.
16eee\	.	16eee\	.	16eee\	.
[16ddd\JJ	.	[16ddd\JJ	.	[16ddd\JJ	.
16ddd\LL])	.	16ddd\LL])	.	16ddd\LL])	.
16ccc#\	.	16ccc#\	.	16ccc#\	.
16bb\	.	16bb\	.	16bb\	.
16bb-\JJ	.	16bb-\JJ	>	16bb-\JJ	.
(16aa\LL	>	(16aa\LL	)	16aa\LL	>
16gg\)	)	16gg\)	)	16gg\	)
16ff#\	)	16ff#\	)	16ff#\	)
16ee\JJ	)	16ee\JJ	)	16ee\JJ	)
(16dd\LL	)	(16dd\LL	)	(16dd\LL	)
16cc#\)	)	16cc#\)	)	16cc#\)	)
16bn\	)	16bn\	)	16bn\	)
16a\JJ	]	16a\JJ	]	16a\JJ	]
=124	=124	=124	=124	=124	=124
!!LO:REH:t=H
(16b\LL	mf	(16b\LL	mf	(16b\LL	mf
16cc#\)	<	16cc#\)	.	16cc#\)	.
16dd~\	(	16dd~\	<	16dd~\	<
16ee~\JJ	(	16ee~\JJ	(	16ee~\JJ	(
16ff#~\LL	(	16ff#~\LL	(	16ff#~\LL	(
16gg~\	(	16gg~\	(	16gg~\	(
16gg#~\	(	16gg#~\	(	16gg#~\	(
16aa~\JJ	[	16aa~\JJ	[	16aa~\JJ	[
(16aa\LL	.	(16aa\LL	.	(16aa\LL	.
16ggn\	.	16ggn\	.	16ggn\	.
16ff#\	.	16ff#\	.	16ff#\	.
16aa\JJ	.	16aa\JJ	.	16aa\JJ	.
8gg\)	.	8gg\)	.	8gg\)	.
16r	.	16r	.	16r	.
(16b\	mf	(16b\	mf	(16b\	mf
=125	=125	=125	=125	=125	=125
16a\LL	<	16a\LL	<	16a\LL	.
16b\)	(	16b\)	(	16b\)	.
16ccn~\	(	16ccn~\	(	16ccn~\	<
16dd~\JJ	(	16dd~\JJ	(	16dd~\JJ	(
16ee~\LL	(	16ee~\LL	(	16ee~\LL	(
16ffn~\	(	16ffn~\	(	16ffn~\	(
16ff#~\	(	16ff#~\	(	16ff#~\	(
16gg~\JJ	[	(16gg~\JJ	[	16gg~\JJ	[
(16gg\LL	.	16gg\LL	.	(16gg\LL	.
16ff#\	.	16ff#\	.	16ff#\	.
16ee#\	.	16ee#\	.	16ee#\	.
16gg\JJ	.	16gg\JJ	.	16gg\JJ	.
8ff#\)	.	8ff#\)	.	8ff#\)	.
8r	.	8r	.	8r	.
=126	=126	=126	=126	=126	=126
!!LO:TX:i:Z=20:t=animando
16r	.	16r	.	16r	.
(16gg#\LL	mf	(16gg#\LL	mf	(16gg#\LL	mf
16aa\	.	16aa\	.	16aa\	.
16gg#\JJ)	.	16gg#\JJ)	.	16gg#\JJ)	.
16r	.	16r	.	16r	.
!	!	!	!	!	!
(16aa\LL	.	(16aa\LL	.	(16aa\LL	.
16bb\	.	16bb\	.	16bb\	.
16aa\JJ)	.	16aa\JJ)	.	16aa\JJ)	.
16r	.	16r	.	16r	.
(16bb\LL	.	(16bb\LL	.	(16bb\LL	.
16ccc#\	.	16ccc#\	.	16ccc#\	.
16bb\JJ)	.	16bb\JJ)	.	16bb\JJ)	.
16r	.	16r	.	16r	.
(16ccc#\LL	.	(16ccc#\LL	.	(16ccc#\LL	.
16ddd\	.	16ddd\	.	16ddd\	.
16ccc#\JJ)	.	16ccc#\JJ)	.	16ccc#\JJ)	.
=127	=127	=127	=127	=127	=127
16r	.	16r	.	16r	.
(16ddd\LL	f	(16ddd\LL	f	(16ddd\LL	f
16eee\	.	16eee\	.	16eee\	.
16ddd\JJ)	.	16ddd\JJ)	.	16ddd\JJ)	.
16r	.	16r	.	16r	.
(16ddd\LL	.	(16ddd\LL	.	(16ddd\LL	.
16eee\	.	16eee\	.	16eee\	.
16ddd\JJ)	.	16ddd\JJ)	.	16ddd\JJ)	.
16r	.	16r	.	16r	.
!!LO:TX:i:Z=10:t=riten.
(16dd\LL	.	(16dd\LL	.	(16dd\LL	.
16b\	.	16b\	.	16b\	.
16cc#\JJ)	.	16cc#\JJ)	.	16cc#\JJ)	.
!	!	!LO:TX:i:Y=20:t=cantabile	!	!	!
(12dd\L	f	(12dd\L	f	(12dd\L	f
12cc#\)	.	12cc#\)	.	12cc#\)	.
!	!	!	!	!LO:TX:i:Y=20:t=cantabile	!
12b~\J	.	12b~\J	.	12b~\J	.
=128	=128	=128	=128	=128	=128
!!LO:TX:Z=20:b:t=Pi&ugrave; mosso
*M12/8	*M12/8	*M12/8	*M12/8	*M12/8	*M12/8
(4.dd^\	.	(4.dd^\	.	(4.dd^\	.
2.cc#\)	.	2.cc#\)	.	2.cc#\)	.
(8a\L	<	(8a\L	<	(8a\L	<
8b\)	(	8b\)	(	8b\)	(
8cc#~\J	[	8cc#~\J	[	8cc#~\J	[
=129	=129	=129	=129	=129	=129
(4.ee\	> ]	(4.ee\	>	(4.ee\	> ]
2.dd\)	<	2.dd\)	]	2.dd\)	.
8dd~\L	(	8dd~\L	<	8dd~\L	<
8ee~\	(	8ee~\	(	8ee~\	(
8ff#~\J	[	8ff#~\J	[	8ff#~\J	[
=130	=130	=130	=130	=130	=130
4.gg\	f	4.gg\	f	4.gg\	f
!LO:TX:Y=20:i:t=cresc.	!	!LO:TX:i:Y=20:t=cresc.	!	!LO:TX:i:Y=20:t=cresc.	!
4gg\	.	4gg\	.	4gg\	.
8gg\	.	8gg\	.	8gg\	.
!	!	!	!	!	!
[4.gg\	.	[4.gg\	.	[4.gg\	.
4gg\]	.	4gg\]	.	4gg\]	.
8gg\	.	8gg\	.	8gg\	.
=131	=131	=131	=131	=131	=131
(8.gg\L	.	(8.gg\L	.	(8.gg\L	.
8.ff#\J)	.	8.ff#\J)	.	8.ff#\J)	.
8.bb~\L	ff	8.bb~\L	ff	8.bb~\L	ff
8.aa~\J	.	8.aa~\J	.	8.aa~\J	.
!LO:TX:Y=20:i:t=dim.	!	!	!	!LO:TX:Y=20:i:t=dim.	!
(8gg\L	.	(8gg\L	.	(8gg\L	.
8ff#\)	.	8ff#\)	.	8ff#\)	.
8ee~\J	.	8ee~\J	.	8ee~\J	.
8dd~\L	.	8dd~\L	.	8dd~\L	.
8cc#~\	.	8cc#~\	.	8cc#~\	.
8b~\J	.	8b~\J	.	8b~\J	.
=132	=132	=132	=132	=132	=132
(4.dd^\	f	(4.dd^\	f	(4.dd^\	f
2.cc#\)	.	2.cc#\)	.	2.cc#\)	.
(8a\L	<	(8a\L	<	(8a\L	<
8b\)	(	8b\)	(	8b\)	(
8cc#~\J	[	8cc#~\J	[	8cc#~\J	[
=133	=133	=133	=133	=133	=133
(4.ee\	> ]	(4.ee\	>	(4.ee\	> ]
2.dd\)	<	2.dd\)	]	2.dd\)	.
8dd~\L	(	8dd~\L	<	8dd~\L	<
8ee~\	(	8ee~\	(	8ee~\	(
8ff#~\J	[	8ff#~\J	[	8ff#~\J	[
=134	=134	=134	=134	=134	=134
!!LO:TX:b:Z=10:t=Un poco pi&ugrave; animato
4.ff#\	f	4.gg#\	f	4.gg#\	f
4.ff#\	.	4gg#\	.	4gg#\	.
.	.	8gg#\	.	8gg#\	.
4.ff#\	.	4.gg#\	.	4.gg#\	.
8dd~\L	.	8dd~\L	.	8dd~\L	.
8ee~\	.	8ee~\	.	8ee~\	.
8ff#~\J	.	8ff#~\J	.	8ff#~\J	.
=135	=135	=135	=135	=135	=135
4.ff#\	.	4.gg#\	.	4.gg#\	.
4.ff#\	.	4gg#\	.	4gg#\	.
.	.	8gg#\	.	8gg#\	.
4.ff#\	.	4.gg#\	.	4.gg#\	.
8gg#~\L	ff	8gg#~\L	ff	8gg#~\L	ff
8aa~\	.	8aa~\	.	8aa~\	.
8bb~\J	.	8bb~\J	.	8bb~\J	.
=136	=136	=136	=136	=136	=136
4.bb\	.	4.bb\	.	4.bb\	.
4bb\	.	4bb\	.	4bb\	.
8bb\	.	8bb\	.	8bb\	.
4.bb\	.	4.bb\	.	4.bb\	.
8gg#~\L	.	8gg#~\L	.	8gg#~\L	.
8aa~\	.	8aa~\	.	8aa~\	.
8bb~\J	.	8bb~\J	.	8bb~\J	.
=137	=137	=137	=137	=137	=137
4.bb\	.	4.bb\	.	4.bb\	.
4bb\	.	4bb\	.	4bb\	.
8bb\	.	8bb\	.	8bb\	.
8bb\	.	8bb\	.	8bb\	.
4bb\	.	4bb\	.	4bb\	.
4bb\	.	4bb\	.	4bb\	.
[8bb\	.	[8bb\	.	[8bb\	.
=138	=138	=138	=138	=138	=138
!!LO:REH:t=I
8bb\]	.	8bb\]	.	8bb\]	.
4bb\	.	4bb\	.	4bb\	.
4bb\	.	4bb\	.	4bb\	.
[8bb\	.	[8bb\	.	[8bb\	.
8bb\]	.	8bb\]	.	8bb\]	.
4bb\	.	4bb\	.	4bb\	.
4bb\	.	4bb\	.	4bb\	.
[8bb\	.	[8bb\	.	[8bb\	.
=139	=139	=139	=139	=139	=139
8bb\]	.	8bb\]	.	8bb\]	.
4bb\	.	4bb\	.	4bb\	.
4bb\	.	4bb\	.	4bb\	.
[8bb\	.	[8bb\	.	[8bb\	.
8bb\]	.	8bb\]	.	8bb\]	.
4bb\	.	4bb\	.	4bb\	.
4bb\	.	4bb\	.	4bb\	.
[8bb\	.	[8bb\	.	[8bb\	.
=140	=140	=140	=140	=140	=140
8bb\]	.	8bb\]	.	8bb\]	.
!!LO:TX:i:Z=10:t=riten.
4gg\	.	4gg\	.	4gg\	.
4ee\	.	4ee\	.	4ee\	.
[8dd\	.	[8dd\	.	[8dd\	.
8dd\]	.	8dd\]	.	8dd\]	.
4cc#\	.	4cc#\	.	4cc#\	.
4b\	.	4b\	.	4b\	.
(8a/	.	(8a/	.	(8a/	.
=141	=141	=141	=141	=141	=141
8a#\L)	.	8a#\L)	.	8a#\L)	.
8b\	.	8b\	.	8b\	.
8cc#\J	.	8cc#\J	.	8cc#\J	.
8dd\L	.	8dd\L	.	8dd\L	.
8dd#\	.	8dd#\	.	8dd#\	.
8ee\J	.	8ee\J	.	8ee\J	.
8ff#\L	.	8ff#\L	.	8ff#\L	.
8gg\	.	8gg\	.	8gg\	.
8aan\J	.	8aan\J	.	8aan\J	.
8aa#\L	.	8aa#\L	.	8aa#\L	.
8bb\	.	8bb\	.	8bb\	.
8ccc#\J	.	8ccc#\J	.	8ccc#\J	.
=142	=142	=142	=142	=142	=142
!!LO:TX:b:Z=40:t=Andante mosso
*rscale:2/3	*	*rscale:3/2	*	*rscale:3/2	*
*	*	*	*	*	*
12ddd\	.	4ddd\	fff	4ddd\	fff
!LO:TX:i:Z=10:t=(Kl.Fl. nehmen)	!	!	!	!	!
12r	.	.	.	.	.
12r	.	.	.	.	.
!	!	!	!	!	!
6r	.	(6ff#\	.	(6ff#\	.
12r	.	12bb\)	.	12bb\)	.
3.r	.	[4aa\	.	[4aa\	.
.	.	6aa\]	.	6aa\]	.
.	.	12aa\	.	12aa\	.
*rscale:1	*	*	*	*	*
=143	=143	=143	=143	=143	=143
1r	.	8bb\L	.	8bb\L	.
.	.	8ccc#\J	.	8ccc#\J	.
.	.	8ddd\L	.	8ddd\L	.
.	.	8bb\J	.	8bb\J	.
.	.	[4fff#\	.	[4fff#\	.
.	.	12fff#\]	.	12fff#\]	.
.	.	12r	.	12r	.
.	.	12r	.	12r	.
!	!	!	!	!	!
=144	=144	=144	=144	=144	=144
!!LO:TX:i:Z=10:t=animando
1r	.	8bb\L	.	8bb\L	.
.	.	8ccc#\J	.	8ccc#\J	.
.	.	8ddd\L	.	8ddd\L	.
.	.	8bb\J	.	8bb\J	.
.	.	4fff#\	.	4fff#\	.
.	.	(8eee\L	.	(8eee\L	.
.	.	8ddd\J)	.	8ddd\J)	.
=145	=145	=145	=145	=145	=145
1r	.	4ddd\	.	4ddd\	.
.	.	(8ccc#\L	.	(8ccc#\L	.
.	.	8bb\J)	.	8bb\J)	.
.	.	(12ee\L	.	(12ee\L	.
.	.	12gg\)	.	12gg\)	.
.	.	12bb~\J	.	12bb~\J	.
.	.	(6bb\	.	(6bb\	.
.	.	12aa\)	.	12aa\)	.
!!LO:TX:i:Z=10:t=riten.
=146	=146	=146	=146	=146	=146
1r	.	4ddd\	.	4ddd\	.
.	.	(6ff#\	.	(6ff#\	.
.	.	12bb\)	.	12bb\)	.
.	.	[4aa\	.	[4aa\	.
.	.	6aa\]	.	6aa\]	.
.	.	12aa\	.	12aa\	.
=147	=147	=147	=147	=147	=147
!!LO:TX:i:Z=20:t=animando un poco
1r	.	8bb\L	.	8bb\L	.
.	.	8ccc#\J	.	8ccc#\J	.
.	.	8ddd\L	.	8ddd\L	.
.	.	8bb\J	.	8bb\J	.
.	.	[4fff#\	.	[4fff#\	.
.	.	12fff#\]	.	12fff#\]	.
.	.	12r	.	12r	.
.	.	12r	.	12r	.
!	!	!	!	!	!
=148	=148	=148	=148	=148	=148
*rscale:3/2	*	*	*	*	*
!LO:TX:Z=10:t=Kl.Fl.	!	!	!	!	!
2r	.	8bb\L	.	8bb\L	.
.	.	8ccc#\J	.	8ccc#\J	.
.	.	8ddd\L	.	8ddd\L	.
.	.	8bb\J	.	8bb\J	p
4ff#\	ff	4fff#\	.	4fff#\	.
6ff#\	.	6fff#\	.	6fff#\	.
12ff#\	.	12fff#\	.	12fff#\	.
*rscale:1	*	*rscale:1	*	*rscale:1	*
=149	=149	=149	=149	=149	=149
*	*	*	*	*	*
(4.ff#\	fff	(4.ff#\	.	(4.fff#\	.
4gg\)	.	4gg\)	.	4ggg\)	.
8gg\	.	8gg\	.	8ggg\	.
(4.gg\	.	(4.gg\	.	(4.ggg\	.
4gg#\)	.	4gg#\)	.	4ggg#\)	.
8gg#\	.	8gg#\	.	8ggg#\	.
=150	=150	=150	=150	=150	=150
(8.gg#\L	.	(8.gg#\L	.	(8.ggg#\L	.
8.aa\J)	.	8.aa\J)	.	8.aaa\J)	.
8.aa\L	.	8.aa\L	.	8.aaa\L	.
8.aa\J	.	8.aa\J	.	8.aaa\J	.
(8.aa\L	.	(8.aa\L	.	(8.aaa\L	.
8.aa#\J)	.	8.aa#\J)	.	8.aaa#\J)	.
8.aa#\L	.	8.aa#\L	.	8.aaa#\L	.
8.aa#\J	.	8.aa#\J	.	8.aaa#\J	.
=151	=151	=151	=151	=151	=151
!!LO:REH:t=K
!	!	!LO:TX:i:Y=20:t=cresc.	!	!	!
(4.aa#\	.	(4.aa#\	.	(4.aa#\	.
4bb\)	.	4bb\)	.	4bb\)	.
8bb\	.	8bb\	.	8bb\	.
(4.bb\	.	(4.bb\	.	(4.bb\	.
4cccn\)	.	4cccn\)	.	4cccn\)	.
8ccc\	.	8ccc\	.	8ccc\	.
=152	=152	=152	=152	=152	=152
(8.cccn\L	.	(8.cccn\L	.	(8.cccn\L	.
8.ccc#\J)	.	8.ccc#\J)	.	8.ccc#\J)	.
8.ccc#\L	.	8.ccc#\L	.	8.ccc#\L	.
8.ccc#\J	.	8.ccc#\J	.	8.ccc#\J	.
(8.ccc#\L	.	(8.ccc#\L	.	(8.ccc#\L	.
8.ddd\J)	.	8.ddd\J)	.	8.ddd\J)	.
8.ddd\L	.	8.ddd\L	.	8.ddd\L	.
8.ddd\J	.	8.ddd\J	.	8.ddd\J	.
=153	=153	=153	=153	=153	=153
!!LO:TX:Z=10:b:t=Molto pi&ugrave; andante
*M4/4	*M4/4	*M4/4	*M4/4	*M4/4	*M4/4
*met(c)	*met(c)	*met(c)	*met(c)	*met(c)	*met(c)
4ddd\	ffff	4ddd\	ffff	4ddd\	.
(8ff#\L	.	(8ff#\L	.	(8fff#\L	.
8bb\J)	>	8bb\J)	.	8bbb\J)	.
2aa\	]	2aa\	> ]	2aaa\	> ]
=154	=154	=154	=154	=154	=154
4bb\	ff	4bb\	ff	4bbb\	ff
!!LO:TX:i:Z=10:t=animando
(8dd\L	.	(8ddd\L	.	(8ddd\L	.
8gg\J)	>	8ggg\J)	.	8ggg\J)	>
2ff#\	]	2fff#\	> ]	2fff#\	]
=155	=155	=155	=155	=155	=155
*M12/8	*M12/8	*rscale:3/2	*	*M12/8	*M12/8
*rscale:3/2	*	*	*	*rscale:3/2	*
12gg\	.	4ggg\	f	4ggg\	f
!LO:TX:i:Z=10:t=(Gr.Fl. nehmen)	!	!	!	!	!
12r	.	.	.	.	.
12r	.	.	.	.	.
!	!	!	!	!	!
6r	.	(6bb\	.	(6bb\	.
12r	.	12ccc#\)	.	12ccc#\)	>
!!LO:TX:i:Z=10:t=riten.
3.r	.	[2ddd\	> ]	[2ddd\	]
*rscale:1	*	*	*	*	*
=156	=156	=156	=156	=156	=156
!!LO:TX:b:Z=10:t=Pi&ugrave; animato
1r	.	4ddd\]	mf	4ddd\]	mf <
.	.	4d/	< [	4a/	[
.	.	4d/	> ]	4g#/	>
.	.	4a/	.	4gn/	]
=157	=157	=157	=157	=157	=157
!!LO:TX:i:Z=10:t=riten.
1r	.	4a/	.	4f#/	p <
.	.	4d/	p < [	4a/	[
.	.	4d/	>	4g#/	>
.	.	4a/	]	4gn/	]
*	*	*rscale:1	*	*rscale:1	*
=158	=158	=158||	=158||	=158||	=158||
*M4/4	*M4/4	*M4/4	*M4/4	*M4/4	*M4/4
*met(c)	*met(c)	*met(c)	*met(c)	*met(c)	*met(c)
!LO:TX:Z=10:t=Kl.Fl.	!	!	!	!	!
!!LO:TX:b:Z=10:t=Allegro non troppo
(8ee\L	fff	8b\	fff	8fn/	fff
8dd\J)	.	8r	.	8r	.
4r	.	4r	.	4r	.
2r	.	2r	.	2r	.
=159	=159	=159	=159	=159	=159
1r	.	1r	.	1r	.
=160	=160	=160	=160	=160	=160
1r	.	1r	.	1r	.
=161	=161	=161	=161	=161	=161
1r	.	1r	.	1r	.
=162	=162	=162	=162	=162	=162
1r	.	1r	.	1r	.
=163	=163	=163	=163	=163	=163
4r	.	8r	.	8r	.
.	.	(8b\L	.	(8ffn\L	.
8r	.	8ffn\	.	8bb\	.
(8fn/	.	8bb\J)	.	8ddd\J)	.
8b\L	.	(8b\L	.	(8ff\L	.
8ffn\J)	.	8ff\	.	8bb\	.
(8ff\L	.	8bb\	.	8ddd\	.
8bb\J)	.	8ddd\J)	.	8fffn\J)	.
=164	=164	=164	=164	=164	=164
12bb-\L	fff	12ddd\L	fff	12eee\L	fff
12bb-\	.	12ddd\	.	12eee\	.
12bb-\J	.	12ddd\J	.	12eee\J	.
12bb-\L	.	12ddd\L	.	12eee\L	.
12bb-\	.	12ddd\	.	12eee\	.
12bb-\J	.	12ddd\J	.	12eee\J	.
8bb-^\L	.	8ddd^\L	.	8eee^\L	.
8bb-^\J	.	8ddd^\J	.	8eee^\J	.
8bb-^\L	.	8ddd^\L	.	8eee^\L	.
8bb-^\J	.	8ddd^\J	.	8eee^\J	.
=165	=165	=165	=165	=165	=165
8ee^\L	.	8ee^\L	.	8ee^\L	.
8ee^\J	.	8ee^\J	.	8ee^\J	.
4r	.	4r	.	4r	.
2r	.	2r	.	2r	.
!!LO:TX:i:Z=10:t=riten.
=166	=166	=166	=166	=166	=166
1r	.	1r	.	1r	.
=167	=167	=167	=167	=167	=167
1r	.	1r	.	1r	.
=168	=168	=168	=168	=168	=168
1r	.	1r	.	1r	.
=169	=169	=169	=169	=169	=169
1r	.	1r	.	1r	.
=170	=170	=170||	=170||	=170||	=170||
*M12/8	*M12/8	*M12/8	*M12/8	*M12/8	*M12/8
!!LO:TX:b:Z=20:t=Tempo I
1.r	.	1.r	.	1.r	.
=171	=171	=171	=171	=171	=171
1.r	.	1.r	.	1.r	.
=172	=172	=172	=172	=172	=172
1.r	.	1.r	.	1.r	.
=173	=173	=173	=173	=173	=173
2.r	.	2.r	.	2.r	.
8c#/L	pp	8b-\L	pp	8cc#\L	pp
8c#/	<	8b-\	<	8cc#\	<
8c#/J	(	8b-\J	(	8cc#\J	(
8c#/L	(	8b-\L	(	8cc#\L	(
8c#/	(	8b-\	(	8cc#\	(
8c#/J	[	8b-\J	[	8cc#\J	[
=174	=174	=174	=174	=174	=174
8d/L	>	8a/L	>	8dd\L	>
8d/	)	8a/	)	8dd\	)
8d/J	]	8a/J	]	8dd\J	]
4r	.	4r	.	4r	.
8r	.	8r	.	8r	.
8c#/L	<	8b-\L	<	2.r	.
8c#/	(	8b-\	(	.	.
8c#/J	(	8b-\J	(	.	.
8c#/L	(	8b-\L	(	.	.
8c#/	(	8b-\	(	.	.
8c#/J	[	8b-\J	[	.	.
=175	=175	=175	=175	=175	=175
8d/	.	8a/	.	2.r	.
8r	.	8r	.	.	.
8r	.	8r	.	.	.
4r	.	4r	.	.	.
8r	.	8r	.	.	.
8c#/L	<	8b-\L	<	8cc#\L	<
8c#/	(	8b-\	(	8cc#\	(
8c#/J	(	8b-\J	(	8cc#\J	(
8c#/L	(	8b-\L	(	8cc#\L	(
8c#/	(	8b-\	(	8cc#\	(
8c#/J	[	8b-\J	[	8cc#\J	[
=176	=176	=176	=176	=176	=176
8d/L	>	8a/L	>	8dd\L	.
8d/	)	8a/	)	8dd\	.
8d/J	]	8a/J	]	8dd\J	.
4r	.	4r	.	4r	.
8r	.	8r	.	8r	.
8c#/L	<	8b-\L	<	2.r	.
8c#/	(	8b-\	(	.	.
8c#/J	(	8b-\J	(	.	.
8c#/L	(	8b-\L	(	.	.
8c#/	(	8b-\	(	.	.
8c#/J	[	8b-\J	[	.	.
=177	=177	=177	=177	=177	=177
8d/	.	8a/	.	1.r	.
8r	.	8r	.	.	.
8r	.	8r	.	.	.
4r	.	4r	.	.	.
8r	.	8r	.	.	.
(4.c#/	pp	2.r	.	.	.
4.e/	.	.	.	.	.
=178	=178	=178	=178	=178	=178
8f#/)	.	1.r	.	1.r	.
8r	.	.	.	.	.
8r	.	.	.	.	.
4r	.	.	.	.	.
8r	.	.	.	.	.
(4.c#/	.	.	.	.	.
4.e/	.	.	.	.	.
=179	=179	=179	=179	=179	=179
8d/)	.	1.r	.	1.r	.
8r	.	.	.	.	.
8r	.	.	.	.	.
4r	.	.	.	.	.
8r	.	.	.	.	.
2.r	.	.	.	.	.
=180	=180	=180	=180	=180	=180
1.r	.	1.r	.	1.r	.
=181	=181	=181	=181	=181	=181
1.r	.	1.r	.	1.r	.
=182	=182	=182	=182	=182	=182
*	*	*	*	*	*
*	*	*	*	*	*
1r	.	1r	.	1r	.
!	!	!	!	!	!
!!LO:TX:i:Z=10:t=riten. molto
=183	=183	=183	=183	=183	=183
*	*	*	*	*	*
1.r	.	1.r	.	1.r	.
=184	=184	=184	=184	=184	=184
1.r;	.	1.r;	.	1.r;	.
==	==	==	==	==	==
*-	*-	*-	*-	*-	*-
!!muse2ps: =z21
